Adwaita++/actions/22/group-delete.svg

<svg height="22" width="22" xmlns="http://www.w3.org/2000/svg">
  <g fill="#444" transform="translate(3 -3)">
    <path d="m2 8s-1 0-1 1v11s0 1 1 1h8v-5h5v-5c0-1-1-1-1-1h-5l-2-2z"/>
    <path d="m11 17v1c0 .28.1.54.28.72l.78.78-.78.78c-.18.18-.28.44-.28.72v1h1c.28 0 .54-.1.72-.28l.78-.78.78.78c.18.18.44.28.72.28h1v-1c0-.28-.1-.54-.28-.72l-.78-.78.78-.78c.18-.18.28-.44.28-.72v-1h-1c-.28 0-.54.1-.72.28l-.78.78-.78-.78c-.18-.18-.44-.28-.72-.28z"/>
  </g>
</svg>

<svg xmlns="http://www.w3.org/2000/svg" width="22" height="22" version="1.1">
 <defs>
  <style id="current-color-scheme" type="text/css">
   .ColorScheme-Text { color:#444444; } .ColorScheme-Highlight { color:#4285f4; }
  </style>
 </defs>
 <g transform="translate(3,-3)">
  <path style="fill:currentColor" class="ColorScheme-Text" d="M 2,8 C 2,8 1,8 1,9 V 20 C 1,20 1,21 2,21 H 10 V 16 H 15 V 11 C 15,10 14,10 14,10 H 9 L 7,8 Z"/>
  <path style="fill:currentColor" class="ColorScheme-Text" d="M 11,17 V 18 C 11,18.28 11.1,18.54 11.28,18.72 L 12.06,19.5 11.28,20.28 C 11.1,20.46 11,20.72 11,21 V 22 H 12 C 12.28,22 12.54,21.9 12.72,21.72 L 13.5,20.94 14.28,21.72 C 14.46,21.9 14.72,22 15,22 H 16 V 21 C 16,20.72 15.9,20.46 15.72,20.28 L 14.94,19.5 15.72,18.72 C 15.9,18.54 16,18.28 16,18 V 17 H 15 C 14.72,17 14.46,17.1 14.28,17.28 L 13.5,18.06 12.72,17.28 C 12.54,17.1 12.28,17 12,17 Z"/>
 </g>
</svg>
